X:139
T:Swallowtail Reel                                                                                  
M:4/4                                                                                               
L:1/8                                                                                               
K:G                                                                                                 
gf|eA(3cBA eAcA|cdef gedB|G2 BG dGBG|Bdef g2 fg|                                                    
eA(3cBA eAcA| cdef g2fg|afge dBGB|1 AcBG A2 gf :|2 AcBG A2 cd||                                     
eaag abag|edef gedB|G2 BG dGBG|cdef g2fg|                                                           
eaag abag|edef g2fg| afge dBGB|1 AcBG A2 cd:|2 AcBG A2 gf||
